icons/solid/tag.svg

<svg width="24" height="24" viewBox="0 0 24 24" fill="none" xmlns="http://www.w3.org/2000/svg">
<path fill-rule="evenodd" clip-rule="evenodd" d="M2 4.97448C2 3.33172 3.33172 2 4.97448 2H11.0936C11.8824 2 12.639 2.31338 13.1968 2.87121L21.1288 10.8032C22.2904 11.9648 22.2904 13.8481 21.1288 15.0097L15.0097 21.1288C13.8481 22.2904 11.9648 22.2904 10.8032 21.1288L2.87121 13.1968C2.31338 12.639 2 11.8824 2 11.0936V4.97448ZM7.45322 8.94046C8.2746 8.94046 8.94046 8.2746 8.94046 7.45322C8.94046 6.63184 8.2746 5.96598 7.45322 5.96598C6.63184 5.96598 5.96598 6.63184 5.96598 7.45322C5.96598 8.2746 6.63184 8.94046 7.45322 8.94046Z" fill="currentColor"/>
</svg>

<svg width="24" height="24" fill="none" xmlns="http://www.w3.org/2000/svg"><path fill-rule="evenodd" clip-rule="evenodd" d="M2 4.974A2.974 2.974 0 014.974 2h6.12c.788 0 1.545.313 2.103.871l7.932 7.932a2.974 2.974 0 010 4.207l-6.12 6.119a2.974 2.974 0 01-4.206 0l-7.932-7.932A2.974 2.974 0 012 11.094v-6.12zM7.453 8.94a1.487 1.487 0 100-2.974 1.487 1.487 0 000 2.974z" fill="currentColor"/></svg>
